X: 08100
T: RUTHIE'S HORNPIPE
C: Bob McQuillen 25 Dec 91
B: Bob's Note Book 8 #100
%R: hornpipe, reel
Z: 2021 John Chambers <jc:trillian.mit.edu>
M: C
L: 1/8
K: D
de \
| f2dA BdAG | FAfa f2ef | g2ec Acef | geag fdAd |\
| f2dA BdAG | FAfa fdfa | gfed ceag | f2d2 d2 :|
|: dB \
| Adfd edBd | Adfe d2cd | edfd gfed | cedB AGFG |\
| Adfd edBd | Adfe d2cd | edfa gecd | e2d2 d2 :|
%%begintext align
%% Ruthie Dornfeld of
%% Cambridge, MA, is one of the best fiddlers I know. Team
%% her up with fellow-fiddler Mary Lea, throw in Jack
%% O'Connor on tenor banjo and Cal Howard on bass, and
%% that's one of the best combos I ever played with. Thanks for
%% what you do, Ruthie - I just love it! Sorry it's taken me so
%% long to get you a tune!
%%endtext

%%sep 1 1 500

%%sep 1 1 500

